images/flags/ar.svg

<?xml version="1.0" encoding="UTF-8" standalone="no"?>
<svg
   xmlns:dc="http://purl.org/dc/elements/1.1/"
   xmlns:cc="http://creativecommons.org/ns#"
   xmlns:rdf="http://www.w3.org/1999/02/22-rdf-syntax-ns#"
   xmlns:svg="http://www.w3.org/2000/svg"
   xmlns="http://www.w3.org/2000/svg"
   xmlns:xlink="http://www.w3.org/1999/xlink"
   xmlns:sodipodi="http://sodipodi.sourceforge.net/DTD/sodipodi-0.dtd"
   xmlns:inkscape="http://www.inkscape.org/namespaces/inkscape"
   width="784px"
   height="504px"
   viewBox="-910 -585 1820 1170"
   version="1.1"
   id="svg46"
   sodipodi:docname="ar.svg"
   inkscape:version="0.92.5 (2060ec1f9f, 2020-04-08)">
  <metadata
     id="metadata52">
    <rdf:RDF>
      <cc:Work
         rdf:about="">
        <dc:format>image/svg+xml</dc:format>
        <dc:type
           rdf:resource="http://purl.org/dc/dcmitype/StillImage" />
      </cc:Work>
    </rdf:RDF>
  </metadata>
  <defs
     id="defs50" />
  <sodipodi:namedview
     pagecolor="#ffffff"
     bordercolor="#666666"
     borderopacity="1"
     objecttolerance="10"
     gridtolerance="10"
     guidetolerance="10"
     inkscape:pageopacity="0"
     inkscape:pageshadow="2"
     inkscape:window-width="640"
     inkscape:window-height="480"
     id="namedview48"
     showgrid="false"
     inkscape:zoom="0.93650794"
     inkscape:cx="366.72619"
     inkscape:cy="228.17034"
     inkscape:window-x="0"
     inkscape:window-y="27"
     inkscape:window-maximized="0"
     inkscape:current-layer="svg46" />
  <title
     id="title2">Flag of Argentina</title>
  <rect
     id="blue"
     fill="#75aadb"
     x="-50%"
     y="-50%"
     width="100%"
     height="100%" />
  <rect
     id="white"
     fill="white"
     x="-50%"
     y="-195"
     width="100%"
     height="390" />
  <g
     id="sun"
     transform="translate(4.9576271,-2.4788136)"
     style="fill:#fcbf49;stroke:#843511;stroke-width:1.5">
    <g
       id="16rays">
      <g
         id="8rays">
        <g
           id="4rays">
          <g
             id="2rays">
            <path
               d="m -8,0 6,159.5 c 0,0 0,3 2,3 2,0 2,-3 2,-3 L 8,0"
               id="path6"
               inkscape:connector-curvature="0" />
            <path
               d="M -4,0 0,109.5 4,0"
               id="path8"
               inkscape:connector-curvature="0"
               style="fill:#843511;stroke:none" />
            <g
               transform="rotate(11.5)"
               id="g14">
              <path
                 d="m -4.5,53.5 c -5,21.5 6,36 0.5,55 -5.5,19 3,32 4,40 1,8 -5,11.5 -3,13 C -1,163 5,158 5.5,147 6,136 -1.5,131.25 5,108 11.5,84.75 1,77 8,56"
                 id="path10"
                 inkscape:connector-curvature="0" />
              <path
                 d="M -1,58 C -4,79 6,90.5 0,109 8,95 -2,81 3,59"
                 id="path12"
                 inkscape:connector-curvature="0"
                 style="fill:#843511;stroke:none" />
            </g>
          </g>
          <use
             xlink:href="#2rays"
             transform="scale(-1)"
             id="use17"
             x="0"
             y="0"
             width="100%"
             height="100%" />
        </g>
        <use
           xlink:href="#4rays"
           transform="rotate(90)"
           id="use20"
           x="0"
           y="0"
           width="100%"
           height="100%" />
      </g>
      <use
         xlink:href="#8rays"
         transform="rotate(45)"
         id="use23"
         x="0"
         y="0"
         width="100%"
         height="100%" />
    </g>
    <use
       xlink:href="#16rays"
       transform="rotate(22.5)"
       id="use26"
       x="0"
       y="0"
       width="100%"
       height="100%" />
    <circle
       r="65"
       id="circle28"
       cx="0"
       cy="0"
       style="stroke-width:1" />
    <g
       id="face_right"
       style="fill:#843511;stroke:none">
      <path
         id="eyebrow_nose"
         d="M 41,-14 C 29.5,-24 15,-25.5 7,-18 A 140,50 10 0 0 8.5,8.5 C 8,8.5 7,9 6.5,9.5 A 80,50 10 0 1 4,-19 c 11,-9 26,-10 37,5"
         inkscape:connector-curvature="0" />
      <path
         id="uppalpebra"
         d="m 23,-17 c -6.5,0 -8,1.5 -11,4 -3,2.5 -4.5,2 -5,2.5 -0.5,0.5 0,2 1,1.5 1,-0.5 3,-1.5 6,-4 3,-2.5 6,-2.5 9,-2.5 9,0 14,7.5 15,7 C 39,-9 33,-17 23,-17"
         inkscape:connector-curvature="0" />
      <path
         id="upeyecontour"
         d="M 34.5,-8.5 C 28,-15.5 16,-16 11,-8 h 2 c 5,-8 17,-4.5 18,-1 v 1"
         inkscape:connector-curvature="0" />
      <circle
         id="pupil"
         cx="22"
         cy="-9"
         r="4.5" />
      <path
         id="loweyecontour"
         d="m 11,-8 c 5,4.5 16,5 23.5,-0.5 L 31,-9 c -5,5.5 -13,5 -18,1 v -1"
         inkscape:connector-curvature="0" />
      <path
         id="lowpalpebra"
         d="M 35,-6 C 26.5,0.5 18,0 13,-3 8,-6 8,-7 9,-7 c 1,0 2,1 6,3 4,2 10,2 20,-2"
         inkscape:connector-curvature="0" />
      <path
         id="nose"
         d="m 10.5,9 a 3,3 0 1 1 -4,3 C 6,13 4,16 0,16 h -1 l 1,1.5 c 1,0 4,0 6,-1.5 a 4.5,4.5 0 1 0 4.5,-7"
         inkscape:connector-curvature="0" />
      <path
         id="uplip"
         d="M 16.5,30 C 12,27 10,22.5 5,22.5 4,22.5 2,23 0,24 h -1 l 1,1.5 c 2,0 5,-2.5 8.5,-0.5 3.5,2 5.5,4 8,5"
         inkscape:connector-curvature="0" />
      <path
         id="midlip"
         d="M 15,30 C 5,27 3,29 0,29 h -1 l 1,2 c 4,0 6,-3 15,-1"
         inkscape:connector-curvature="0" />
      <path
         id="path39"
         d="M 16.5,30 C 5.5,29 9,35.5 0,35.5 H -1 L 0,37 c 11,0 6,-6 16.5,-7"
         inkscape:connector-curvature="0" />
      <path
         id="chin"
         d="M 9,46 A 9,9 0 0 0 -9,46 9.25,9.25 0 0 1 9,46"
         inkscape:connector-curvature="0" />
    </g>
    <use
       xlink:href="#face_right"
       transform="scale(-1,1)"
       id="use43"
       x="0"
       y="0"
       width="100%"
       height="100%" />
  </g>
</svg>

<?xml version="1.0" encoding="UTF-8"?>
<!DOCTYPE svg PUBLIC "-//W3C//DTD SVG 1.1//EN" "http://www.w3.org/Graphics/SVG/1.1/DTD/svg11.dtd">
<svg xmlns="http://www.w3.org/2000/svg" width="784px" height="504px" viewBox="-910 -585 1820 1170">
	<title>Flag of Argentina</title>

	<rect id="blue" fill="#75aadb" x="-50%" y="-50%" width="100%" height="100%"/>
	<rect id="white" fill="white" x="-50%" y="-195" width="100%" height="390"/>
	<g id="sun" fill="#fcbf49" stroke="#843511" stroke-width="1.5">
		<g id="16rays">
			<g id="8rays">
				<g id="4rays">
					<g id="2rays">
						<path d="M -8,0 L -2,159.5 c 0,0 0,3 2,3 s 2,-3 2,-3 L 8,0"/>
						<path d="M -4,0 L 0,109.5 L 4,0" fill="#843511" stroke="none"/>
						<g transform="rotate(11.5)">
							<path d="M -4.5,53.5 C -9.5,75 1.5,89.5 -4,108.5 S -1,140.5 0,148.5 -5,160 -3,161.5 5,158 5.5,147 -1.5,131.25 5,108 1,77 8,56"/>
							<path d="M -1,58 C -4,79 6,90.5 0,109 C 8,95 -2,81 3,59" fill="#843511" stroke="none"/>
						</g>
					</g>
					<use xlink:href="#2rays" transform="rotate(180)"/>
				</g>
				<use xlink:href="#4rays" transform="rotate(90)"/>
			</g>
			<use xlink:href="#8rays" transform="rotate(45)"/>
		</g>
		<use xlink:href="#16rays" transform="rotate(22.5)"/>
		<circle r="65" stroke-width="1"/>
		<g id="face_right" fill="#843511" stroke="none">
			<path id="eyebrow_nose" d="M 41,-14 C 29.5,-24 15,-25.5 7,-18 A 140,50 10 0,0 8.5,8.5 C 8,8.5 7,9 6.5,9.5 A 80,50 10 0,1 4,-19 C 15,-28 30,-29 41,-14"/>
			<path id="uppalpebra" d="M 23,-17 C 16.5,-17 15,-15.5 12,-13 S 7.5,-11 7,-10.5 S 7,-8.5 8,-9 S 11,-10.5 14,-13 S 20,-15.5 23,-15.5 C 32,-15.5 37,-8 38,-8.5 S 33,-17 23,-17"/>
			<path id="upeyecontour" d="M 34.5,-8.5 C 28,-15.5 16,-16 11,-8 H 13 C 18,-16 30,-12.5 31,-9 v 1"/>
			<circle id="pupil" cx="22" cy="-9" r="4.5"/>
			<path id="loweyecontour" d="M 11,-8 C 16,-3.5 27,-3 34.5,-8.5 L 31,-9 C 26,-3.5 18,-4 13,-8 v -1"/>
			<path id="lowpalpebra" d="M 35,-6 C 26.5,0.5 18,0 13,-3 S 8,-7 9,-7 S 11,-6 15,-4 S 25,-2 35,-6"/>
			<path id="nose" d="M 10.5,9 A 3,3 0 1,1 6.5,12 C 6,13 4,16 0,16 h -1 l 1,1.5 C 1,17.5 4,17.5 6,16 A 4.5,4.5 0 1,0 10.5,9"/>
			<path id="uplip" d="M 16.5,30 C 12,27 10,22.5 5,22.5 C 4,22.5 2,23 0,24 h -1 L 0,25.5 C 2,25.5 5,23 8.5,25 S 14,29 16.5,30"/>
			<path id="midlip" d="M 15,30 C 5,27 3,29 0,29 h -1 l 1,2 C 4,31 6,28 15,30"/>
			<path id="uplip" d="M 16.5,30 C 5.5,29 9,35.5 0,35.5 h -1 L 0,37 C 11,37 6,31 16.5,30"/>
			<path id="chin" d="M 9,46 a 9,9 0 0,0 -18,0 a 9.25,9.25 0 0,1 18,0"/>
		</g>
		<use xlink:href="#face_right" transform="scale(-1,1)"/>
	</g>
</svg>
